icons/Finance/bit-coin-line.svg

<svg viewBox="0 0 24 24" xmlns="http://www.w3.org/2000/svg"><path d="M12.0049 22.0029C6.48204 22.0029 2.00488 17.5258 2.00488 12.0029C2.00488 6.48008 6.48204 2.00293 12.0049 2.00293C17.5277 2.00293 22.0049 6.48008 22.0049 12.0029C22.0049 17.5258 17.5277 22.0029 12.0049 22.0029ZM12.0049 20.0029C16.4232 20.0029 20.0049 16.4212 20.0049 12.0029C20.0049 7.58465 16.4232 4.00293 12.0049 4.00293C7.5866 4.00293 4.00488 7.58465 4.00488 12.0029C4.00488 16.4212 7.5866 20.0029 12.0049 20.0029ZM11.0049 16.0029H8.00488V8.00293H11.0049V6.00293H13.0049V8.00293H14.0049C15.3856 8.00293 16.5049 9.12222 16.5049 10.5029C16.5049 11.0657 16.3189 11.5851 16.0051 12.0029C16.3189 12.4208 16.5049 12.9401 16.5049 13.5029C16.5049 14.8836 15.3856 16.0029 14.0049 16.0029H13.0049V18.0029H11.0049V16.0029ZM10.0049 13.0029V14.0029H14.0049C14.281 14.0029 14.5049 13.7791 14.5049 13.5029C14.5049 13.2268 14.281 13.0029 14.0049 13.0029H10.0049ZM10.0049 10.0029V11.0029H14.0049C14.281 11.0029 14.5049 10.7791 14.5049 10.5029C14.5049 10.2268 14.281 10.0029 14.0049 10.0029H10.0049Z"/></svg>

<svg xmlns="http://www.w3.org/2000/svg" viewBox="0 0 24 24">
    <g>
        <path fill="none" d="M0 0h24v24H0z"/>
        <path d="M12 22C6.477 22 2 17.523 2 12S6.477 2 12 2s10 4.477 10 10-4.477 10-10 10zm0-2a8 8 0 1 0 0-16 8 8 0 0 0 0 16zm-1-4H8V8h3V6h2v2h1a2.5 2.5 0 0 1 2 4 2.5 2.5 0 0 1-2 4h-1v2h-2v-2zm-1-3v1h4a.5.5 0 1 0 0-1h-4zm0-3v1h4a.5.5 0 1 0 0-1h-4z"/>
    </g>
</svg>
